X: 1
T: Many's a Wild Night
M: 2/4
L: 1/8
Q: 240
S: David Kidd
R: Polka
P: ABCD
D: Jackie Daly, Domhnach is Dalach - Many's a Wild Night
Z: Lorna LaVerne
K:D
FG | A>B AF | FE EB/c/ | dd/d/ dc/B/ | cc/c/ cA/B/ |
cf fe/d/ | ce ec/B/ | AB/c/ df | e2 e2 |
aa a^g/f/ | ee ec | Bc/B/ AF | E2 Ec/d/ |
ee fe/d/ | cA FA | EF A>A | A2 AF/G/ |
Ad dc/B/ | AF FE/F/ | GB BA/G/ | FD D2 |
Ad dc/B/ | AF FE/F/ | GB BA | D2 D2 |
dA/d/ fa | ge e/f/e/d/ | cA/c/ eg | fd f/g/f/e/ |
dA/d/ fa | ge ed | cb ba | d2 d2|
